metawallet-ui/public/i/icons/arrow-delegation-down.svg

<svg width="18" height="31" viewBox="0 0 18 31" fill="none" xmlns="http://www.w3.org/2000/svg">
    <path d="M17 1.5C17.2761 1.5 17.5 1.27614 17.5 1C17.5 0.723858 17.2761 0.5 17 0.5V1.5ZM17 26.8085L17.3249 27.1886C17.43 27.0987 17.4932 26.9693 17.4995 26.8312C17.5058 26.6931 17.4546 26.5585 17.358 26.4595L17 26.8085ZM13.6247 22.6297C13.4319 22.432 13.1154 22.4279 12.9177 22.6207C12.7199 22.8134 12.7159 23.13 12.9086 23.3277L13.6247 22.6297ZM12.9418 29.6199C12.7319 29.7994 12.7072 30.115 12.8866 30.3249C13.066 30.5348 13.3817 30.5595 13.5916 30.3801L12.9418 29.6199ZM17 0.5H6V1.5H17V0.5ZM5.80851 27.3085H17V26.3085H5.80851V27.3085ZM17.358 26.4595L13.6247 22.6297L12.9086 23.3277L16.642 27.1575L17.358 26.4595ZM16.6751 26.4285L12.9418 29.6199L13.5916 30.3801L17.3249 27.1886L16.6751 26.4285ZM5.80851 26.3085C3.42899 26.3085 1.5 24.3795 1.5 22H0.5C0.5 24.9318 2.8767 27.3085 5.80851 27.3085V26.3085ZM6 0.5C2.96243 0.5 0.5 2.96243 0.5 6H1.5C1.5 3.51472 3.51472 1.5 6 1.5V0.5Z" fill="#5487B7"/>
</svg>

<svg width="18" height="31" fill="none" xmlns="http://www.w3.org/2000/svg"><path d="M17 1.5a.5.5 0 0 0 0-1v1zm0 25.308l.325.38a.5.5 0 0 0 .033-.729l-.358.35zm-3.375-4.178a.5.5 0 0 0-.716.698l.716-.698zm-.683 6.99a.5.5 0 0 0 .65.76l-.65-.76zM17 .5H6v1h11v-1zM5.809 27.308H17v-1H5.809v1zm11.549-.849l-3.733-3.83-.716.699 3.733 3.83.716-.699zm-.683-.03l-3.733 3.19.65.761 3.733-3.191-.65-.76zm-10.866-.12A4.309 4.309 0 0 1 1.5 22h-1a5.309 5.309 0 0 0 5.309 5.308v-1zM6 .5A5.5 5.5 0 0 0 .5 6h1A4.5 4.5 0 0 1 6 1.5v-1z" fill="#5487B7"/></svg>
